static/icons/matrix.svg

<svg width="48" height="48" viewBox="0 0 48 48" fill="none" xmlns="http://www.w3.org/2000/svg">
<g clip-path="url(#clip0_57_2469)">
<path d="M1.26462 1.09846V46.9015H4.56V48H0V0H4.56V1.09846H1.26462Z" fill="white"/>
<path d="M15.3507 15.6188V17.9357H15.4153C16.0338 17.0495 16.7815 16.3665 17.6492 15.8865C18.5168 15.3972 19.523 15.1572 20.6492 15.1572C21.7292 15.1572 22.7168 15.3695 23.6122 15.7849C24.5076 16.2003 25.1815 16.948 25.6522 18.0003C26.1599 17.2526 26.8522 16.588 27.7199 16.0157C28.5876 15.4434 29.6215 15.1572 30.8122 15.1572C31.7168 15.1572 32.5568 15.268 33.3322 15.4895C34.1076 15.7111 34.763 16.0618 35.3168 16.5511C35.8707 17.0403 36.2953 17.668 36.6092 18.4526C36.9138 19.2372 37.0707 20.1788 37.0707 21.2865V32.7418H32.3722V23.0403C32.3722 22.468 32.3538 21.9234 32.3076 21.4157C32.2615 20.908 32.1415 20.4649 31.9476 20.0957C31.7445 19.7172 31.4584 19.4218 31.0707 19.2003C30.683 18.9788 30.1568 18.868 29.5015 18.868C28.8368 18.868 28.3015 18.9972 27.8953 19.2465C27.4892 19.5049 27.1661 19.828 26.9353 20.2434C26.7045 20.6495 26.5476 21.1111 26.4738 21.6372C26.3999 22.1541 26.3538 22.6803 26.3538 23.2065V32.7418H21.6553V23.1418C21.6553 22.6342 21.6461 22.1357 21.6184 21.6372C21.5999 21.1388 21.4984 20.6865 21.3322 20.2618C21.1661 19.8465 20.8892 19.5049 20.5015 19.2557C20.1138 19.0065 19.5507 18.8772 18.7938 18.8772C18.5722 18.8772 18.2768 18.9234 17.9168 19.0249C17.5568 19.1265 17.1968 19.3111 16.8553 19.588C16.5138 19.8649 16.2184 20.2618 15.9784 20.7788C15.7384 21.2957 15.6184 21.9788 15.6184 22.8188V32.7511H10.9199V15.6188H15.3507Z" fill="white"/>
<path d="M46.7353 46.9015V1.09846H43.4399V0H47.9999V48H43.4399V46.9015H46.7353Z" fill="white"/>
</g>
<defs>
<clipPath id="clip0_57_2469">
<rect width="48" height="48" fill="white"/>
</clipPath>
</defs>
</svg>

<svg width="48" height="48" fill="none" xmlns="http://www.w3.org/2000/svg"><g clip-path="url(#a)" fill="#fff"><path d="M1.265 1.098v45.803H4.56V48H0V0h4.56v1.098H1.265ZM15.35 15.619v2.317h.065c.619-.887 1.367-1.57 2.234-2.05.868-.489 1.874-.729 3-.729 1.08 0 2.068.213 2.963.628.896.415 1.57 1.163 2.04 2.215.508-.747 1.2-1.412 2.068-1.984.868-.573 1.902-.859 3.092-.859.905 0 1.745.111 2.52.332.776.222 1.431.573 1.985 1.062.554.49.978 1.117 1.292 1.902.305.784.462 1.726.462 2.834v11.455h-4.699V23.04c0-.572-.018-1.117-.064-1.624-.047-.508-.166-.951-.36-1.32a2.21 2.21 0 0 0-.877-.896c-.388-.221-.914-.332-1.57-.332-.664 0-1.2.13-1.606.379a2.759 2.759 0 0 0-.96.996c-.23.407-.387.868-.461 1.394a11.1 11.1 0 0 0-.12 1.57v9.535h-4.699v-9.6c0-.508-.009-1.006-.037-1.505a4.15 4.15 0 0 0-.286-1.375 2.103 2.103 0 0 0-.83-1.006c-.388-.25-.951-.379-1.708-.379-.222 0-.517.046-.877.148s-.72.286-1.062.563c-.341.277-.637.674-.877 1.19-.24.518-.36 1.2-.36 2.04v9.933H10.92V15.62h4.43Zm31.385 31.282V1.099H43.44V0H48v48h-4.56v-1.099h3.295Z"/></g><defs><clipPath id="a"><path fill="#fff" d="M0 0h48v48H0z"/></clipPath></defs></svg>
